dist/img/11.svg

<svg version="1.1" xmlns="http://www.w3.org/2000/svg" xmlns:xlink="http://www.w3.org/1999/xlink" x="0px" y="0px" width="512px" height="512px"><path d="M485.4475098,149.5275726L267.9651489,4.3099556c-7.5705566-4.8176455-17.2058716-4.8176455-24.0882111,0L25.7063923,150.2158051c-11.0117521,7.5705872-24.7764549,13.7646942-25.4647064,28.2176361v133.5176392c0,14.4529114-2.7529511,30.9705811,10.3235264,40.6058655c31.6588058,22.7117615,221.6116791,147.9705811,221.6116791,147.9705811c11.6999817,7.5705872,22.0235138,15.8294067,36.4764862,6.8823547c12.3882446-7.5705872,207.1587524-137.6470337,223.6763611-149.3470154c10.3235168-6.8823547,18.5823364-12.3882446,18.5823364-26.8411865l-0.0000305-141.7764435C515.2042236,173.0959778,506.8125916,160.9729156,485.4475098,149.5275726z M255.5769653,308.5098572l-77.7705994-51.6176147l77.7705994-51.6176453l77.7705994,51.6176453L255.5769653,308.5098572z M234.241684,166.0451965l-94.9764709,64.0058594l-77.0823135-51.6176453L234.241684,63.4981461V166.0451965z M99.3476105,256.20401l-55.0588112,36.4764404v-72.9529114L99.3476105,256.20401z M138.5769958,283.0451965l94.9764557,64.0058594V449.598053L61.4946747,334.6627808L138.5769958,283.0451965z M277.6005249,346.3628235l94.9764709-64.0058594l77.0823059,51.6176453L277.6005249,448.9098816V346.3628235z M412.4945984,256.20401l55.0588074-36.4764557v73.6411591L412.4945984,256.20401z M373.2651978,230.0510712l-95.6646729-64.0058594V64.1864166l172.0587769,114.9352722L373.2651978,230.0510712z"/></svg>

<svg xmlns="http://www.w3.org/2000/svg" width="512" height="512"><path d="M485.448 149.528L267.965 4.31c-7.57-4.818-17.206-4.818-24.088 0L25.707 150.216C14.694 157.786.93 163.98.241 178.433v133.518c0 14.453-2.753 30.97 10.323 40.606 31.659 22.712 221.612 147.97 221.612 147.97 11.7 7.571 22.023 15.83 36.476 6.883 12.389-7.57 207.16-137.647 223.677-149.347 10.323-6.882 18.582-12.388 18.582-26.841V189.445c4.292-16.349-4.1-28.472-25.464-39.917zM255.577 308.51l-77.77-51.618 77.77-51.617 77.77 51.617-77.77 51.618zm-21.335-142.465l-94.977 64.006-77.082-51.618L234.242 63.498v102.547zM99.348 256.204l-55.06 36.476v-72.952l55.06 36.476zm39.229 26.841l94.976 64.006v102.547L61.495 334.663l77.082-51.618zm139.024 63.318l94.976-64.006 77.082 51.618L277.601 448.91V346.363zm134.894-90.159l55.058-36.476v73.64l-55.058-37.164zm-39.23-26.153l-95.664-64.006V64.186l172.058 114.936-76.394 50.93z"/></svg>
